X: 37141
T: Sins Of The Fathers, The
R: hornpipe
M: 4/4
K: Gminor
d>f|:g>a g>f d>c A>F|G>B (3(3AGF D2 G,>A,|B,>C D>=E (3FD=E C>A,|B,>G (3BAF G>A B>c|
d>G (3GGG d>G e>G|c>F (3FFF d>c B>A|G>F D>C (3B,A,G, A,>B,|1 G,2 G2 G2 d>f:|2 G,2 G2 G2 B>A||
G>d B>G F>c A>F|E>B G>E D2 B,>C|D>G (3GGG B2 B>c|d>c B>c A2 B>A|
G>d (3ddd F>d (3ddd|E>B F>E D2 B>c|d>g (3ggg d>c A>F|1 D>G G>F G2B>A:|2 D>G G>F G2||

